packages/kaspersky-hexa-ui-icons/src/iconsSVGs/16/Spiral.svg

<svg width="16" height="16" viewBox="0 0 16 16" fill="none" xmlns="http://www.w3.org/2000/svg">
<path fill-rule="evenodd" clip-rule="evenodd" d="M1.37936 7.19981C1.70194 3.196 5.3089 1.34998 8.17544 1.34998C9.64889 1.34998 11.2487 1.87717 12.4903 2.86731C13.7439 3.86705 14.6501 5.35719 14.6501 7.25201C14.6501 9.10853 13.9194 10.4575 12.8278 11.3278C11.7578 12.1809 10.3912 12.5362 9.14621 12.5362C8.04978 12.5362 6.85531 12.1901 5.92026 11.4759C4.96851 10.7489 4.28956 9.63907 4.28956 8.17884C4.28956 6.7521 4.85911 5.7192 5.65539 5.05398C6.43052 4.40644 7.39098 4.13046 8.17544 4.13046C10.0425 4.13046 11.7378 5.38803 11.7378 7.25201C11.7378 7.87745 11.4974 8.48716 11.1123 8.94488C10.7264 9.40355 10.1521 9.75568 9.4698 9.75567C8.16008 9.75564 7.20185 8.94207 7.20186 7.86987C7.20186 7.51089 7.49288 7.21987 7.85187 7.21988C8.21085 7.21988 8.50186 7.5109 8.50186 7.86988C8.50186 8.03349 8.6713 8.45565 9.46982 8.45567C9.68401 8.45567 9.91863 8.34439 10.1176 8.10793C10.3173 7.87052 10.4378 7.55339 10.4378 7.25201C10.4378 6.30751 9.54421 5.43046 8.17544 5.43046C7.66555 5.43046 7.00807 5.6179 6.48884 6.05166C5.99078 6.46774 5.58956 7.13403 5.58956 8.17884C5.58956 9.19015 6.04316 9.93394 6.70935 10.4428C7.39225 10.9644 8.3011 11.2362 9.14621 11.2362C10.1663 11.2362 11.2267 10.9417 12.0174 10.3113C12.7863 9.69826 13.3501 8.73015 13.3501 7.25201C13.3501 5.81216 12.6736 4.67629 11.6797 3.88368C10.6738 3.08147 9.36135 2.64998 8.17544 2.64998C5.72326 2.64998 2.92449 4.20953 2.67516 7.30421C2.52589 9.15693 3.04877 10.7567 4.0565 11.925C5.06399 13.093 6.59538 13.8751 8.54666 14.0184C8.90468 14.0447 9.1736 14.3562 9.14731 14.7143C9.12102 15.0723 8.80947 15.3412 8.45145 15.3149C6.19605 15.1493 4.32974 14.2321 3.07211 12.7741C1.81472 11.3164 1.20504 9.36335 1.37936 7.19981Z" fill="black"/>
</svg>

<svg xmlns="http://www.w3.org/2000/svg" width="16" height="16" fill="none" viewBox="0 0 16 16"><path fill="#000" fill-rule="evenodd" d="M1.3792 7.1998C1.7018 3.196 5.3088 1.35 8.1753 1.35c1.4735 0 3.0733.5272 4.3149 1.5173 1.2536.9998 2.1597 2.49 2.1597 4.3847 0 1.8566-.7306 3.2055-1.8223 4.0759-1.0699.853-2.4365 1.2083-3.6815 1.2083-1.0964 0-2.291-.3461-3.226-1.0603-.9517-.7269-1.6307-1.8368-1.6307-3.297 0-1.4268.5696-2.4597 1.3659-3.1249.7751-.6475 1.7356-.9235 2.52-.9235 1.8671 0 3.5623 1.2576 3.5623 3.1215 0 .6255-.2403 1.2352-.6254 1.693-.3859.4586-.9603.8107-1.6425.8107-1.3097 0-2.268-.8136-2.268-1.8858a.65.65 0 1 1 1.3 0c0 .1636.1695.5858.968.5858.2142 0 .4488-.1113.6478-.3477.1997-.2375.3201-.5546.3201-.856 0-.9445-.8935-1.8215-2.2623-1.8215-.5099 0-1.1674.1874-1.6866.6212-.498.416-.8993 1.0824-.8993 2.1272 0 1.0113.4536 1.755 1.1198 2.2639.683.5216 1.5918.7934 2.4369.7934 1.0201 0 2.0804-.2945 2.8711-.9248.769-.6131 1.3327-1.5812 1.3327-3.0594 0-1.4398-.6764-2.5757-1.6703-3.3683C10.6737 3.0815 9.3612 2.65 8.1753 2.65c-2.4522 0-5.251 1.5596-5.5003 4.6542-.1492 1.8528.3736 3.4526 1.3814 4.6208 1.0075 1.1681 2.5389 1.9501 4.4901 2.0934a.65.65 0 0 1-.0952 1.2965c-2.2554-.1656-4.1217-1.0827-5.3793-2.5407-1.2574-1.4578-1.867-3.4108-1.6928-5.5744"/></svg>
